X:575
T: KRANE KRANE SCHWICKLE SCHWANE
N: E1880
O: Europa, Mitteleuropa, Deutschland, Bergisches Land, Barmen; Elberfeld
R: Kinder - Lied, Tanz, Ringelreihen, Bruecken - Spiel
M: 2/4
L: 1/8
K: F
 | cBAB | cBAB |
cccd | cBAB |
cccd | c2AB |
cccd | c2AB |
cccd | cBA
d | cBAd | cBAz |
dcBA | GGFz

@@@ Tune index: 5259
